icons/afterpay.svg

<?xml version="1.0" encoding="UTF-8"?>
<svg width="24px" height="24px" viewBox="0 0 24 24" version="1.1" xmlns="http://www.w3.org/2000/svg" xmlns:xlink="http://www.w3.org/1999/xlink">
    <!-- Generator: Sketch 56.3 (81716) - https://sketch.com -->
    <title>afterpay</title>
    <desc>Created with Sketch.</desc>
    <g id="afterpay" stroke="none" stroke-width="1" fill="none" fill-rule="evenodd">
        <path d="M12.4700558,10.8479609 L12.4700558,10.8492406 L11.415612,9.03211655 C11.178874,8.62518315 10.92678,8.22464807 10.7156354,7.80235869 C10.4047743,7.20950935 10.4290063,6.49678357 10.7794157,5.92641683 C11.1298251,5.35605009 11.7546467,5.01230132 12.4239878,5.02164711 C15.6538018,4.99616656 18.8837541,4.9931806 22.1136096,5.01268946 C22.6869767,5.01030102 23.2300416,5.26989789 23.5882547,5.71760189 C23.9464677,6.16530589 24.0806033,6.75209182 23.9524879,7.31096741 C23.8859453,7.60529031 23.7490212,7.89577422 23.5980208,8.16066483 C22.0995333,10.77502 20.5908085,13.3855362 19.0846431,15.9960523 C19.0040242,16.1368155 18.9118883,16.2737396 18.8120745,16.4017061 C17.9163091,17.5610824 16.3397621,17.4855821 15.5860395,16.2327903 C14.9513258,15.1745075 14.6774775,14.6639213 14.0632384,13.5941215 C14.0120518,13.504545 13.9493483,13.4239261 13.900721,13.2959596 L16.3807114,11.8550571 C16.6763139,12.3579653 16.603373,12.2466345 16.8797806,12.6906782 C17.1485102,13.1206455 17.3737312,13.1219252 17.6322235,12.6817205 C18.4378303,11.3021458 19.2355012,9.91795222 20.0251967,8.52920829 C20.2632143,8.10947824 20.1480445,7.9072912 19.6745685,7.90473188 C18.0775469,7.89577422 16.4805252,7.89833355 14.8835036,7.90857087 C14.3345274,7.91240986 14.2347135,8.10180025 14.4996041,8.58423388 C14.7504184,9.04107421 14.6838759,8.92462471 14.9590038,9.40705834 L12.4700558,10.8479609 Z M5.28857699,18.9124084 L5.28857699,18.913688 C4.2597265,18.913688 2.26856809,18.9303237 1.80277011,18.9008914 C1.13919598,18.8723668 0.539688084,18.4964824 0.224938075,17.9116091 C-0.0898119344,17.3267359 -0.0732785149,16.6193283 0.268452029,16.0497982 C1.855779,13.2659328 3.4626511,10.4932573 5.08894928,7.73197713 C5.37254037,7.23952089 5.86536993,6.90340986 6.42736737,6.81917255 C6.98936481,6.73493524 7.5590812,6.91178218 7.97459338,7.29945043 C8.19357433,7.51325811 8.37984758,7.75817294 8.52740857,8.02630003 C10.0246164,10.6150619 11.5128665,13.2089424 13.0011167,15.8028229 C13.0820945,15.9433009 13.1534917,16.0890879 13.2148207,16.2391886 C13.7612375,17.5841163 12.9115401,18.8996117 11.4616799,18.921366 L8.10128019,18.921366 L8.10128019,16.0472389 L9.06614744,16.0472389 C9.57033537,16.0306033 9.68294587,15.8386536 9.43341124,15.3984489 C8.65153605,14.0189702 7.85686422,12.6484492 7.06347205,11.2753689 C6.80242043,10.8236473 6.59127574,10.8594779 6.35325809,11.2651316 C5.55014337,12.6311678 4.75545644,14.0021414 3.96924259,15.3779742 C3.70051299,15.8501705 3.81312349,16.0433999 4.35826069,16.0433999 C4.8957199,16.0433999 5.29241599,16.0472389 5.29241599,16.0472389 L5.28857699,18.9124084 Z" fill="#000000"></path>
    </g>
</svg>

<svg xmlns="http://www.w3.org/2000/svg" width="24" height="24" viewBox="0 0 24 24"><path fill-rule="evenodd" d="M12.47 10.848v.001l-1.054-1.817c-.237-.407-.49-.807-.7-1.23a1.899 1.899 0 011.708-2.78c3.23-.026 6.46-.029 9.69-.01a1.879 1.879 0 011.838 2.299 3.181 3.181 0 01-.354.85c-1.498 2.614-3.007 5.225-4.513 7.835-.081.14-.173.278-.273.406-.896 1.16-2.472 1.084-3.226-.17-.635-1.057-.909-1.568-1.523-2.638-.05-.09-.114-.17-.162-.298l2.48-1.44c.295.502.222.39.499.835.269.43.494.43.752-.01a388.152 388.152 0 002.393-4.152c.238-.42.123-.622-.35-.624a398.62 398.62 0 00-4.791.004c-.55.003-.65.193-.384.675.25.457.184.34.459.823l-2.489 1.441zm-7.18 8.064v.002c-1.03 0-3.02.016-3.486-.013A1.884 1.884 0 01.268 16.05a683.976 683.976 0 014.82-8.318 1.863 1.863 0 012.887-.433c.219.214.405.46.552.727 1.498 2.59 2.986 5.183 4.474 7.777.081.14.152.286.214.436.546 1.345-.303 2.66-1.753 2.682h-3.36v-2.874h.964c.504-.016.617-.208.367-.649-.781-1.379-1.576-2.75-2.37-4.123-.26-.451-.472-.416-.71-.01a385.621 385.621 0 00-2.384 4.113c-.268.472-.156.665.39.665.537 0 .933.004.933.004l-.003 2.865z"/></svg>
